X: 26626
T: Mickey Duggan
R: polka
M: 2/4
K: Dmajor
|:FA dA|BA dA|FA d>e|fd e2|
FA dA|BA d>e|fd BA|Bc d2:|
|:fa ab|af ed/e/|fd BA|Be e2|
fa ab|af ed/e/|fd BA|Bc d2:|

